X: 996
T: Hengâm-ı Safâdır
C: Zekâî Dede
O: Turkey
F: http://compmusic.upf.edu/node/140
N: muhayyer--beste--darbifetih--hengam-i_safadir--zekai_dede
N: makam= muhayyer
N: form= beste
N: usul= darbifetih = 88/4
M: 88/4
L: 1/16
K: C _2/4B ^3/4f  
Q: 1/4=84
%%MIDI tuningsystem comma53
g4 a12  | a4 {c'}b2 a2 a2 g2 g2 f2  | \
w:  Hen  |  hen  | 
g12 z4  | g6 b2 a2 g2 g2 f2  | g6 z2 d'2 c'2 d'4  | 
w:  gâ  |  hen *  gâm_  |  ı  sa  | 
d'2 c'4 b2 b2 a2 {c'}b2 a2  | a8 z4 {c'}b2 a2  | \
w:  fâ  |  dır   | 
a12 z4  | z4 {e'}d'2 c'2 b4 a4  | a2 g2 g2 f2 g4 a4  | 
w:   |  dır   |  *  *  *  *  yi ne   | 
z2 g4 f2 g2 a2 {c'}b2 a2  | a2 g2 f2 e2 e6 z2  | \
w:  nû  |   | 
e8 =f2 e2 f2 g2  | z2 e4 c2 d4 e4  | 
w:  nûş_ i  *  mey   |  i  | 
e2 =f2 e2 d2 d2 {a}g2 ^3/4f2 e2  | \
w:  le    | 
e12 z4  | z4 g4 a8  | a4 {c'}b2 a2 {a}g2 f2 g4  | \
w:   |  Yâr   |   | 
z4 g2 g2 g4 a2 b2  | 
w:  ca  | 
a4 g4 f4 {b}a2 g2  | g8 g4 d'4  | z2 c'4 b2 b2 a2 b2 a2  | \
w:  nım   |  dem  be  dem   |  ey  | 
a8 g4 {c'}b2 a2  | a12 z4  | 
w:  le    |   | 
z4 d'2 c'2 b4 a4  | z4 c'2 b2 a4 g2 f2  | \
w:  ca *  *  nım   |  ca *  *  nım   | 
g2 f2 g2 a_1/4b a2 g4 f2  | z2 g4 _1/4b2 a2 g2 f2 e2  | 
w:  ca *  *  *  *  nım   |  Ten  ne  nen   | 
e8 z4 e4  | e6 f2 g4 f2 e2  | a4 g2 f2 c'4 b2 a2  | \
w:  ni  ten   |  nen  ne  nen   |  nen  *  *  nen   | 
a2 g4 ^2/4f2 f2 e2 f2 e2  | 
w:  nen  *  *  ni   | 
e8 z4 e4  | c6 _3/4d2 d2 c4 d2  | cB A2 B2 c2 B4 c2 _3/4d2  | \
w:  *  ta   |  na  *  dir   |  na  *  *  *  *  *  til   | 
c4 {e}_3/4d2 c2 c2 B4 A2  | 
w:  *  *  lil  *  len   | 
A12 z4  | d4 e4 e4 a4  | a4 g2 =f2 e4 d4  | \
w:  na   |  yâr   |   | 
z4 c2 d2 c4 d4  | d2 c4 B2 B3A G2 d2  | 
w:  dost   |   | 
ce dc c4 B4 c4  | B8 A8  | G4 A12  | d4 e12  | \
w:  *  *  *  *  *  be li   |  yâr_ i   |  men    |  Mu  | 
e4 =f2 e2 e2 d2 d2 c2  | d12 z4  | 
w:  mut  |  rib   | 
d6 e2 c6 B2  | c4 B2 A2 d2 c2 d2 e2  | \
w:  mut *  rib   |  i *  *  de  | 
z2 c4 B2 B2 A2 B2 A2  | A8 G4 {c}B2 A2  | 
w:  rek   |  per  | 
A12 z4  | z4 G2 A2 B4 c4  | d2 e4 c2 d4 a4  | \
w:   |  per  |  *  *  *  de  Mu  | 
z2 e4 c2 d4 e4  | e4 {g}^2/4f2 e2 e2 d2 d2 ^c2  | 
w:  hay  |  yer  | 
d4 z4 d4 a4  | a2 g4 ^2/4f2 f2 e2 f2 e2  | \
w:  *  le  ser   |  *  â  | 
e8 d4 {g}^2/4f2 e2  | e12 z4  | z4 g4 a8  | \
w:  ğaz   |   |  yâr   | 
g4 {c'}_1/4b2 a2 g2 f2 g4  | 
w:   | 
z4 g2 g2 g4 a2 _1/4b2  | a4 g4 f4 {b}a2 g2  | \
w:  ca  |  nım   | 
g8 g4 d'4  | z2 c'4 b2 b2 a2 b2 a2  | 
w:  sâz  le  hem   |  â  | 
a8 g4 {c'}b2 a2  | a12 z4  | z4 d'2 c'2 b4 a4  | \
w:  vaz    |   |  ca *  *  nım   | 
z4 c'2 b2 a4 g2 f2  | g2 f2 g2 ab a2 g4 f2  | 
w:  ca *  *  nım   |  ca *  *  *  *  nım   | 
z2 g4 b2 a2 g2 f2 e2  | e8 z4 e4  | e6 ^2/4f2 g4 f2 e2  | \
w:  Ten  ne  nen   |  ni  ten   |  nen  ne  nen   | 
a4 g2 f2 c'4 b2 a2  | 
w:  nen  *  *  nen   | 
a2 g4 ^2/4f2 f2 e2 f2 e2  | e8 z4 e4  | \
w:  nen  *  *  ni   |  *  ta   | 
c6 _3/4d2 d2 c4 d2  | cB A2 B2 c2 B4 c2 _3/4d2  | 
w:  na  *  dir   |  na  *  *  *  *  *  til   | 
c4 {e}_3/4d2 c2 c2 B4 A2  | A12 z4  | \
w:  *  *  lil  *  len   |  na   | 
d4 e8 a4  | a4 g2 =f2 e4 d4  | z4 c2 d2 c4 d4  | 
w:  yâr   |   |  dost   | 
d2 c4 B2 B3A G2 d2  | ce dc c4 B4 c4  | \
w:   |  *  *  *  *  *  be li   | 
B8 A8  | G4 A12  | |


